svg/black/audr.svg

<?xml version="1.0" encoding="UTF-8"?>
<svg width="32px" height="32px" viewBox="0 0 32 32" version="1.1" xmlns="http://www.w3.org/2000/svg" xmlns:xlink="http://www.w3.org/1999/xlink">
    <!-- Generator: Sketch 52.5 (67469) - http://www.bohemiancoding.com/sketch -->
    <title>svg/black/audr</title>
    <desc>Created with Sketch.</desc>
    <g id="black/audr" stroke="none" stroke-width="1" fill="none" fill-rule="evenodd">
        <path d="M16,32 C7.163444,32 0,24.836556 0,16 C0,7.163444 7.163444,0 16,0 C24.836556,0 32,7.163444 32,16 C32,24.836556 24.836556,32 16,32 Z M10.8544,13.264 L14.464,15.184 L16.384,14.224 L11.7952,11.7376 L11.7952,7.36 L20.6176,11.9392 L22.5376,10.9792 L11.2384,5.056 C10.9763301,4.91800652 10.6611342,4.92733421 10.4076832,5.08058367 C10.1542321,5.23383313 9.99954635,5.50861996 10,5.8048 L10,11.872 C10.0030314,12.4589965 10.3323709,12.9955607 10.8544,13.264 Z M24.6112,12.2464 C24.3556738,11.9977508 23.9715515,11.9362912 23.6512,12.0928 L10.8544,18.736 C10.3293091,19.0060233 9.999445,19.5471487 10,20.1376 L10,26.1952 C9.99954635,26.49138 10.1542321,26.7661669 10.4076832,26.9194163 C10.6611342,27.0726658 10.9763301,27.0819935 11.2384,26.944 L24.0064,20.32 C24.5392142,20.0435958 24.8700223,19.489771 24.8608,18.8896 L24.8608,12.8416 C24.860717,12.6177694 24.7707945,12.4033387 24.6112,12.2464 Z M23.0752,18.784 L11.7952,24.64 L11.7952,20.2624 L23.0752,14.4064 L23.0752,18.784 Z" id="Combined-Shape" fill="#000000" fill-rule="nonzero"></path>
    </g>
</svg>

<svg width="32" height="32" viewBox="0 0 32 32" xmlns="http://www.w3.org/2000/svg"><path d="M16 32C7.163 32 0 24.837 0 16S7.163 0 16 0s16 7.163 16 16-7.163 16-16 16zm-5.146-18.736l3.61 1.92 1.92-.96-4.589-2.486V7.36l8.823 4.58 1.92-.96-11.3-5.924A.845.845 0 0 0 10 5.805v6.067c.003.587.332 1.124.854 1.392zm13.757-1.018a.845.845 0 0 0-.96-.153l-12.797 6.643c-.525.27-.855.811-.854 1.402v6.057a.845.845 0 0 0 1.238.749l12.768-6.624c.533-.276.864-.83.855-1.43v-6.048a.835.835 0 0 0-.25-.596zm-1.536 6.538l-11.28 5.856v-4.378l11.28-5.856v4.378z"/></svg>
